Print+Film+Emulation+LUTs/Rec709_Kodak_2383_D65.cube
TITLE "Generate by Resolve"
LUT_3D_SIZE 33
0.0281830000 0.0281830000 0.0281830000
0.0275880000 0.0278480000 0.0318000000
0.0283360000 0.0283510000 0.0327760000
0.0310670000 0.0290680000 0.0336310000
0.0357820000 0.0301210000 0.0342570000
0.0372930000 0.0313570000 0.0347300000
0.0444500000 0.0329290000 0.0350040000
0.0612040000 0.0351870000 0.0349130000
0.0757610000 0.0388190000 0.0347750000
0.0875560000 0.0435340000 0.0345010000
0.1113300000 0.0477450000 0.0332950000
0.1440150000 0.0505380000 0.0305940000
0.1750060000 0.0529790000 0.0266420000
0.2077060000 0.0540780000 0.0059820000
0.2472420000 0.0492560000 0.0000000000
0.2939040000 0.0250400000 0.0000000000
0.3405200000 0.0000000000 0.0000000000
0.3831540000 0.0000000000 0.0000000000
0.4208590000 0.0000000000 0.0000000000
0.4574200000 0.0000000000 0.0000000000
0.4917530000 0.0000000000 0.0000000000
0.5209740000 0.0000000000 0.0000000000
0.5444270000 0.0000000000 0.0000000000
0.5644010000 0.0000000000 0.0000000000
0.5810790000 0.0000000000 0.0000000000
0.5953460000 0.0000000000 0.0000000000
0.6068210000 0.0000000000 0.0000000000
0.6162660000 0.0000000000 0.0000000000
0.6239870000 0.0000000000 0.0000000000
0.6307010000 0.0000000000 0.0000000000
0.6358890000 0.0000000000 0.0000000000
0.6402990000 0.0000000000 0.0000000000
0.6446780000 0.0000000000 0.0000000000
0.0263830000 0.0288850000 0.0319070000
0.0275430000 0.0294650000 0.0328220000
0.0282140000 0.0299840000 0.0337680000
0.0310370000 0.0307320000 0.0346070000
0.0360570000 0.0318910000 0.0352330000
0.0376900000 0.0332650000 0.0357520000
0.0452120000 0.0350500000 0.0360720000
0.0627300000 0.0375980000 0.0359810000
0.0775460000 0.0416880000 0.0357670000
0.0899820000 0.0469830000 0.0353860000
0.1143210000 0.0514690000 0.0339970000
0.1483180000 0.0531780000 0.0310220000
0.1807280000 0.0552380000 0.0264740000
0.2147860000 0.0564280000 0.0037230000
0.2556190000 0.0521860000 0.0000000000
0.3026780000 0.0278020000 0.0000000000
0.3504540000 0.0000000000 0.0000000000
0.3936830000 0.0000000000 0.0000000000
0.4320440000 0.0000000000 0.0000000000
0.4689560000 0.0000000000 0.0000000000
0.5033650000 0.0000000000 0.0000000000
0.5327990000 0.0000000000 0.0000000000
0.5561610000 0.0000000000 0.0000000000
0.5756160000 0.0000000000 0.0000000000
0.5922480000 0.0000000000 0.0000000000
0.6060580000 0.0000000000 0.0000000000
0.6173950000 0.0000000000 0.0000000000
0.6263070000 0.0000000000 0.0000000000
0.6339060000 0.0000000000 0.0000000000
0.6405130000 0.0000000000 0.0000000000
0.6455020000 0.0000000000 0.0000000000
0.6496220000 0.0000000000 0.0000000000
0.6539560000 0.0000000000 0.0000000000
0.0265200000 0.0300600000 0.0328680000
0.0276340000 0.0306400000 0.0337680000
0.0282290000 0.0311590000 0.0346840000
0.0311280000 0.0319370000 0.0354920000
0.0364540000 0.0331880000 0.0361180000
0.0382090000 0.0346840000 0.0366980000
0.0460520000 0.0366370000 0.0370640000
0.0642710000 0.0394140000 0.0369730000
0.0793010000 0.0439000000 0.0366830000
0.0923630000 0.0497440000 0.0361940000
0.1172350000 0.0531010000 0.0346380000
0.1524990000 0.0547950000 0.0314180000
0.1862970000 0.0570080000 0.0262150000
0.2217750000 0.0581980000 0.0022890000
0.2632330000 0.0536200000 0.0000000000
0.3111160000 0.0290840000 0.0000000000
0.3596860000 0.0000000000 0.0000000000
0.4036930000 0.0000310000 0.0000000000
0.4422980000 0.0000000000 0.0000000000
0.4794540000 0.0000000000 0.0000000000
0.5142900000 0.0000000000 0.0000000000
0.5437700000 0.0000000000 0.0000000000
0.5671780000 0.0000000000 0.0000000000
0.5865110000 0.0000000000 0.0000000000
0.6027010000 0.0000000000 0.0000000000
0.6163880000 0.0000000000 0.0000000000
0.6272830000 0.0000000000 0.0000000000
0.6360570000 0.0000000000 0.0000000000
0.6433510000 0.0000000000 0.0000000000
0.6496070000 0.0000000000 0.0000000000
0.6544590000 0.0000000000 0.0000000000
0.6586100000 0.0000000000 0.0000000000
0.6628980000 0.0000000000 0.0000000000
0.0262300000 0.0330820000 0.0342110000
0.0270700000 0.0336920000 0.0350800000
0.0276340000 0.0342260000 0.0359660000
0.0306710000 0.0350960000 0.0367590000
0.0363470000 0.0365150000 0.0373850000
0.0382090000 0.0382540000 0.0379950000
0.0465100000 0.0405280000 0.0384070000
0.0657360000 0.0438540000 0.0382850000
0.0811170000 0.0490120000 0.0379190000
0.0949420000 0.0534370000 0.0372930000
0.1204390000 0.0563670000 0.0355080000
0.1571220000 0.0585030000 0.0319680000
0.1925230000 0.0610970000 0.0259710000
0.2288700000 0.0625310000 0.0023500000
0.2710460000 0.0581220000 0.0000000000
0.3201800000 0.0408640000 0.0000000000
0.3698020000 0.0066220000 0.0000000000
0.4144960000 0.0000000000 0.0000000000
0.4537270000 0.0000000000 0.0000000000
0.4912490000 0.0000000000 0.0000000000
0.5262070000 0.0000000000 0.0000000000
0.5558250000 0.0000000000 0.0000000000
0.5790950000 0.0000000000 0.0000000000
0.5981540000 0.0000000000 0.0000000000
0.6141910000 0.0000000000 0.0000000000
0.6274820000 0.0000000000 0.0000000000
0.6382540000 0.0000000000 0.0000000000
0.6466770000 0.0000000000 0.0000000000
0.6536960000 0.0000000000 0.0000000000
0.6599530000 0.0000000000 0.0000000000
0.6647750000 0.0000000000 0.0000000000
0.6687880000 0.0000000000 0.0000000000
0.6729380000 0.0000000000 0.0000000000
0.0215610000 0.0384680000 0.0362550000
0.0260780000 0.0391550000 0.0371100000
0.0264290000 0.0397500000 0.0379950000
0.0297090000 0.0407420000 0.0387730000
0.0358280000 0.0424810000 0.0393990000
0.0378270000 0.0446170000 0.0400400000
0.0466930000 0.0475170000 0.0404520000
0.0673080000 0.0509960000 0.0402690000
0.0831920000 0.0544290000 0.0397960000
0.0980090000 0.0583660000 0.0390170000
0.1243000000 0.0620740000 0.0369570000
0.1624780000 0.0649270000 0.0329290000
0.1989320000 0.0683760000 0.0265810000
0.2364080000 0.0705580000 0.0024110000
0.2801860000 0.0666360000 0.0000000000
0.3300070000 0.0545820000 0.0000000000
0.3814450000 0.0187530000 0.0000000000
0.4275120000 0.0000000000 0.0000000000
0.4670020000 0.0000000000 0.0000000000
0.5047070000 0.0000000000 0.0000000000
0.5398640000 0.0000000000 0.0000000000
0.5694510000 0.0000000000 0.0000000000
0.5926300000 0.0000000000 0.0000000000
0.6115210000 0.0000000000 0.0000000000
0.6271000000 0.0000000000 0.0000000000
0.6402840000 0.0000000000 0.0000000000
0.6508130000 0.0000000000 0.0000000000
0.6591440000 0.0000000000 0.0000000000
0.6662390000 0.0000000000 0.0000000000
0.6722510000 0.0000000000 0.0000000000
0.6769820000 0.0000000000 0.0000000000
0.6810250000 0.0000000000 0.0000000000
0.6852370000 0.0000000000 0.0000000000
0.0195470000 0.0426180000 0.0388650000
0.0252540000 0.0433360000 0.0397190000
0.0262610000 0.0439150000 0.0406040000
0.0299080000 0.0449990000 0.0413820000
0.0365300000 0.0469210000 0.0419930000
0.0386820000 0.0493170000 0.0426340000
0.0480050000 0.0521100000 0.0430300000
0.0691080000 0.0542920000 0.0427860000
0.0857100000 0.0578160000 0.0422220000
0.1017320000 0.0623180000 0.0413520000
0.1287560000 0.0666670000 0.0390480000
0.1679410000 0.0702220000 0.0344700000
0.2054630000 0.0744340000 0.0292360000
0.2446330000 0.0774090000 0.0027620000
0.2894330000 0.0740370000 0.0000000000
0.3404750000 0.0637980000 0.0000000000
0.3934690000 0.0279240000 0.0000000000
0.4408640000 0.0000000000 0.0000000000
0.4809800000 0.0000000000 0.0000000000
0.5190360000 0.0000000000 0.0000000000
0.5540700000 0.0000000000 0.0000000000
0.5837030000 0.0000000000 0.0000000000
0.6066680000 0.0000000000 0.0000000000
0.6251470000 0.0000000000 0.0000000000
0.6405280000 0.0000000000 0.0000000000
0.6534220000 0.0000000000 0.0000000000
0.6640270000 0.0000000000 0.0000000000
0.6722970000 0.0000000000 0.0000000000
0.6792100000 0.0000000000 0.0000000000
0.6853740000 0.0000000000 0.0000000000
0.6902570000 0.0000000000 0.0000000000
0.6943770000 0.0000000000 0.0000000000
0.6985120000 0.0000000000 0.0000000000
0.0098120000 0.0503240000 0.0419930000
0.0150910000 0.0510870000 0.0428630000
0.0190740000 0.0516210000 0.0437630000
0.0280770000 0.0527350000 0.0445410000
0.0356760000 0.0540320000 0.0451510000
0.0378730000 0.0554670000 0.0457770000
0.0479440000 0.0574200000 0.0461430000
0.0702830000 0.0603950000 0.0457920000
0.0880750000 0.0648510000 0.0450750000
0.1045850000 0.0702220000 0.0440070000
0.1333490000 0.0750590000 0.0413820000
0.1732810000 0.0791030000 0.0361640000
0.2127720000 0.0829180000 0.0302130000
0.2534980000 0.0857250000 0.0028380000
0.2991680000 0.0843670000 0.0000000000
0.3516900000 0.0767830000 0.0000000000
0.4059210000 0.0609900000 0.0000000000
0.4554510000 0.0220490000 0.0000000000
0.4966050000 0.0000000000 0.0000000000
0.5346000000 0.0000000000 0.0000000000
0.5697260000 0.0001070000 0.0000000000
0.5992520000 0.0000000000 0.0000000000
0.6221710000 0.0000000000 0.0000000000
0.6403910000 0.0000000000 0.0000000000
0.6554060000 0.0000000000 0.0000000000
0.6682080000 0.0000000000 0.0000000000
0.6786910000 0.0000000000 0.0000000000
0.6869920000 0.0000000000 0.0000000000
0.6941020000 0.0000000000 0.0000000000
0.7002980000 0.0000000000 0.0000000000
0.7051500000 0.0000000000 0.0000000000
0.7093160000 0.0000000000 0.0000000000
0.7136190000 0.0000000000 0.0000000000
0.0000000000 0.0608680000 0.0457770000
0.0000000000 0.0618300000 0.0466930000
0.0018920000 0.0624250000 0.0476390000
0.0086370000 0.0639960000 0.0484630000
0.0287630000 0.0660560000 0.0490580000
0.0323340000 0.0683910000 0.0496990000
0.0428170000 0.0712290000 0.0499430000
0.0696420000 0.0744790000 0.0494240000
0.0892650000 0.0792860000 0.0483250000
0.1067980000 0.0848710000 0.0467230000
0.1372550000 0.0899060000 0.0433970000
0.1792940000 0.0945140000 0.0372470000
0.2208130000 0.0992450000 0.0284730000
0.2626230000 0.1030290000 0.0025330000
0.3102010000 0.1030750000 0.0000000000
0.3639120000 0.0986190000 0.0000000000
0.4196380000 0.0899370000 0.0000000000
0.4706800000 0.0764630000 0.0000000000
0.5138480000 0.0391390000 0.0000000000
0.5533230000 0.0182190000 0.0000000000
0.5887690000 0.0000000000 0.0000000000
0.6181280000 0.0000000000 0.0000000000
0.6408030000 0.0000000000 0.0000000000
0.6588540000 0.0000000000 0.0000000000
0.6735480000 0.0000000000 0.0000000000
0.6861680000 0.0000000000 0.0000000000
0.6966050000 0.0000000000 0.0000000000
0.7049670000 0.0000000000 0.0000000000
0.7120620000 0.0000000000 0.0000000000
0.7183030000 0.0000000000 0.0000000000
0.7233690000 0.0000000000 0.0000000000
0.7277330000 0.0000000000 0.0000000000
0.7321890000 0.0000000000 0.0000000000
0.0000000000 0.0720680000 0.0506290000
0.0000000000 0.0733960000 0.0511790000
0.0000000000 0.0743570000 0.0517590000
0.0000000000 0.0762340000 0.0522470000
0.0042880000 0.0790570000 0.0526130000
0.0086980000 0.0814070000 0.0530250000
0.0384070000 0.0840920000 0.0531780000
0.0686050000 0.0877700000 0.0527660000
0.0906390000 0.0931560000 0.0519110000
0.1095290000 0.0998400000 0.0507060000
0.1417870000 0.1051350000 0.0465550000
0.1862210000 0.1102310000 0.0391550000
0.2293580000 0.1159230000 0.0278480000
0.2734420000 0.1208670000 0.0023650000
0.3220870000 0.1225450000 0.0000000000
0.3774470000 0.1201800000 0.0000000000
0.4348210000 0.1145950000 0.0000000000
0.4869610000 0.1062180000 0.0000000000
0.5311670000 0.0959950000 0.0000000000
0.5719230000 0.0731820000 0.0000000000
0.6091250000 0.0330360000 0.0000000000
0.6393840000 0.0000000000 0.0000000000
0.6620280000 0.0000000000 0.0000000000
0.6797280000 0.0000000000 0.0000000000
0.6942860000 0.0000610000 0.0000000000
0.7067670000 0.0000000000 0.0000000000
0.7171280000 0.0000000000 0.0000000000
0.7253680000 0.0000000000 0.0000000000
0.7325250000 0.0000000000 0.0000000000
0.7389790000 0.0000760000 0.0000000000
0.7441830000 0.0000000000 0.0000000000
0.7487910000 0.0000000000 0.0000000000
0.7535520000 0.0000000000 0.0000000000
0.0000000000 0.0820630000 0.0538950000
0.0000000000 0.0830850000 0.0543830000
0.0000000000 0.0838330000 0.0549020000
0.0000000000 0.0857100000 0.0553440000
0.0000000000 0.0891430000 0.0556800000
0.0000000000 0.0921800000 0.0560920000
0.0131080000 0.0969560000 0.0562910000
0.0681160000 0.1016100000 0.0558180000
0.0920420000 0.1069200000 0.0548560000
0.1126120000 0.1131460000 0.0534680000
0.1470050000 0.1197830000 0.0504770000
0.1937590000 0.1262680000 0.0416420000
0.2388040000 0.1324480000 0.0275120000
0.2843820000 0.1375750000 0.0022130000
0.3352100000 0.1401850000 0.0000000000
0.3918060000 0.1396960000 0.0000000000
0.4506900000 0.1368580000 0.0000000000
0.5043560000 0.1321740000 0.0000000000
0.5492330000 0.1251540000 0.0000000000
0.5906460000 0.1129470000 0.0000000000
0.6283670000 0.0969560000 0.0000000000
0.6597850000 0.0771190000 0.0000000000
0.6837870000 0.0570530000 0.0000000000
0.7024340000 0.0110320000 0.0000000000
0.7169910000 0.0000000000 0.0000000000
0.7292900000 0.0000000000 0.0000000000
0.7396810000 0.0000000000 0.0000000000
0.7478450000 0.0000000000 0.0000000000
0.7548940000 0.0000000000 0.0000000000
0.7615010000 0.0000000000 0.0000000000
0.7669950000 0.0157630000 0.0000000000
0.7712980000 0.0497440000 0.0000000000
0.7756010000 0.0664840000 0.0000000000
0.0000000000 0.0977490000 0.0565960000
0.0000000000 0.0991380000 0.0571150000
0.0000000000 0.1002060000 0.0576490000
0.0000000000 0.1026780000 0.0580760000
0.0000000000 0.1066000000 0.0583810000
0.0000000000 0.1096510000 0.0587620000
0.0060430000 0.1146870000 0.0588850000
0.0535130000 0.1212790000 0.0581670000
0.0893870000 0.1282220000 0.0567330000
0.1130080000 0.1356370000 0.0547040000
0.1505610000 0.1426110000 0.0507820000
0.2001070000 0.1497060000 0.0408330000
0.2478370000 0.1575490000 0.0128630000
0.2956890000 0.1635920000 0.0000000000
0.3480130000 0.1674520000 0.0000000000
0.4066830000 0.1688720000 0.0000000000
0.4674450000 0.1684900000 0.0000000000
0.5223770000 0.1665060000 0.0000000000
0.5683380000 0.1629510000 0.0000000000
0.6101170000 0.1559780000 0.0000000000
0.6482490000 0.1465930000 0.0000000000
0.6799270000 0.1378190000 0.0000000000
0.7040820000 0.1295950000 0.0000000000
0.7229570000 0.1237350000 0.0000000000
0.7380180000 0.1176470000 0.0000000000
0.7509120000 0.1129020000 0.0000000000
0.7611660000 0.1122000000 0.0000000000
0.7692070000 0.1153730000 0.0000000000
0.7759210000 0.1201340000 0.0000000000
0.7819790000 0.1264210000 0.0000000000
0.7869230000 0.1340810000 0.0000000000
0.7912720000 0.1413600000 0.0000000000
0.7957890000 0.1479360000 0.0000000000
0.0000000000 0.1198900000 0.0586710000
0.0000000000 0.1213240000 0.0591440000
0.0000000000 0.1224690000 0.0596630000
0.0000000000 0.1248190000 0.0600140000
0.0000000000 0.1290000000 0.0601360000
0.0000000000 0.1332270000 0.0603340000
0.0000000000 0.1395590000 0.0601360000
0.0246430000 0.1487750000 0.0588850000
0.0772870000 0.1574270000 0.0565800000
0.1084920000 0.1662010000 0.0535590000
0.1510030000 0.1744410000 0.0462200000
0.2049290000 0.1829560000 0.0290070000
0.2560770000 0.1915310000 0.0041660000
0.3067520000 0.1987950000 0.0000000000
0.3613790000 0.2044710000 0.0000000000
0.4218660000 0.2079960000 0.0000000000
0.4844280000 0.2099790000 0.0000000000
0.5410700000 0.2103610000 0.0000000000
0.5879760000 0.2091250000 0.0000000000
0.6306100000 0.2054320000 0.0000000000
0.6690930000 0.2001830000 0.0000000000
0.7011060000 0.1948880000 0.0000000000
0.7255820000 0.1904480000 0.0000000000
0.7443050000 0.1864650000 0.0000000000
0.7594410000 0.1834440000 0.0000000000
0.7721680000 0.1822690000 0.0000000000
0.7824670000 0.1830620000 0.0000000000
0.7902490000 0.1853670000 0.0000000000
0.7969180000 0.1889980000 0.0000000000
0.8030820000 0.1939120000 0.0000000000
0.8080420000 0.2003200000 0.0000000000
0.8123450000 0.2066530000 0.0000000000
0.8167540000 0.2126500000 0.0000000000
0.0000000000 0.1427330000 0.0607920000
0.0000000000 0.1446100000 0.0611890000
0.0000000000 0.1461360000 0.0616460000
0.0000000000 0.1486530000 0.0618600000
0.0000000000 0.1528650000 0.0617070000
0.0000000000 0.1573050000 0.0615700000
0.0000000000 0.1641870000 0.0608830000
0.0017240000 0.1756770000 0.0588240000
0.0530860000 0.1873040000 0.0555280000
0.0996720000 0.1974980000 0.0499730000
0.1497520000 0.2071870000 0.0352330000
0.2090490000 0.2170600000 0.0037080000
0.2645000000 0.2264440000 0.0000000000
0.3182570000 0.2351870000 0.0000000000
0.3753720000 0.2426490000 0.0000000000
0.4380250000 0.2477000000 0.0000000000
0.5026170000 0.2512250000 0.0000000000
0.5608000000 0.2533150000 0.0000000000
0.6089110000 0.2537880000 0.0000000000
0.6521400000 0.2519110000 0.0000000000
0.6913250000 0.2484470000 0.0000000000
0.7237510000 0.2451210000 0.0000000000
0.7483330000 0.2426180000 0.0000000000
0.7672240000 0.2401310000 0.0000000000
0.7823450000 0.2382090000 0.0000000000
0.7950410000 0.2378880000 0.0000000000
0.8052950000 0.2393840000 0.0000000000
0.8131230000 0.2420230000 0.0000000000
0.8195770000 0.2456700000 0.0000000000
0.8255890000 0.2504310000 0.0000000000
0.8305640000 0.2566720000 0.0000000000
0.8348670000 0.2634160000 0.0000000000
0.8392770000 0.2694440000 0.0000000000
0.0000000000 0.1657590000 0.0621960000
0.0000000000 0.1679410000 0.0625010000
0.0000000000 0.1697720000 0.0628670000
0.0000000000 0.1730220000 0.0628980000
0.0000000000 0.1779810000 0.0623480000
0.0000000000 0.1828640000 0.0617070000
0.0000000000 0.1901580000 0.0603340000
0.0000000000 0.2023800000 0.0572820000
0.0000000000 0.2172270000 0.0523230000
0.0828720000 0.2298310000 0.0410930000
0.1459530000 0.2410470000 0.0117950000
0.2118560000 0.2519110000 0.0000000000
0.2718850000 0.2625470000 0.0000000000
0.3293970000 0.2732130000 0.0000000000
0.3893340000 0.2818490000 0.0000000000
0.4541240000 0.2881510000 0.0000000000
0.5207140000 0.2933090000 0.0000000000
0.5806670000 0.2970470000 0.0000000000
0.6299840000 0.2990010000 0.0000000000
0.6741130000 0.2985120000 0.0000000000
0.7137710000 0.2964370000 0.0000000000
0.7466850000 0.2943010000 0.0000000000
0.7716340000 0.2926990000 0.0000000000
0.7907840000 0.2909740000 0.0000000000
0.8058290000 0.2897540000 0.0000000000
0.8186160000 0.2899820000 0.0000000000
0.8287630000 0.2918590000 0.0000000000
0.8365150000 0.2949110000 0.0000000000
0.8430300000 0.2990310000 0.0000000000
0.8489050000 0.3039440000 0.0000000000
0.8536810000 0.3099570000 0.0000000000
0.8578620000 0.3166860000 0.0000000000
0.8621810000 0.3231710000 0.0000000000
0.0000000000 0.1919130000 0.0612800000
0.0000000000 0.1943390000 0.0614020000
0.0000000000 0.1964290000 0.0616460000
0.0000000000 0.1999850000 0.0613720000
0.0000000000 0.2060120000 0.0602580000
0.0000000000 0.2116270000 0.0589000000
0.0000000000 0.2196540000 0.0565500000
0.0000000000 0.2326540000 0.0513010000
0.0000000000 0.2485390000 0.0389870000
0.0335550000 0.2656750000 0.0060270000
0.1366290000 0.2783860000 0.0000000000
0.2113830000 0.2905320000 0.0000150000
0.2768900000 0.3030590000 0.0000000000
0.3383230000 0.3151900000 0.0000000000
0.4012660000 0.3254600000 0.0000000000
0.4686350000 0.3337610000 0.0000000000
0.5376670000 0.3405050000 0.0000000000
0.5993900000 0.3455710000 0.0000000000
0.6498970000 0.3488370000 0.0000000000
0.6950640000 0.3497370000 0.0000000000
0.7354850000 0.3490500000 0.0000000000
0.7689020000 0.3481040000 0.0000000000
0.7943390000 0.3473560000 0.0000000000
0.8134890000 0.3462120000 0.0000000000
0.8287480000 0.3454030000 0.0000000000
0.8415350000 0.3459220000 0.0000000000
0.8517740000 0.3479360000 0.0000000000
0.8593580000 0.3510340000 0.0000000000
0.8657510000 0.3550770000 0.0000000000
0.8716560000 0.3600980000 0.0000000000
0.8763100000 0.3660330000 0.0000000000
0.8802780000 0.3723200000 0.0000000000
0.8843820000 0.3784850000 0.0000000000
0.0000000000 0.2214540000 0.0570080000
0.0000000000 0.2242470000 0.0569310000
0.0000000000 0.2266730000 0.0570230000
0.0000000000 0.2306710000 0.0564430000
0.0000000000 0.2373540000 0.0540020000
0.0000000000 0.2439610000 0.0512700000
0.0000000000 0.2531320000 0.0446480000
0.0000000000 0.2670630000 0.0290990000
0.0001830000 0.2840160000 0.0018770000
0.0000000000 0.3023270000 0.0000000000
0.1085070000 0.3205000000 0.0000150000
0.2064240000 0.3338980000 0.0000000000
0.2785230000 0.3483940000 0.0000000000
0.3447470000 0.3625090000 0.0000000000
0.4112310000 0.3748530000 0.0000000000
0.4814070000 0.3846190000 0.0000000000
0.5526970000 0.3933320000 0.0000000000
0.6165100000 0.4003200000 0.0000000000
0.6687110000 0.4049740000 0.0000000000
0.7148090000 0.4072330000 0.0000000000
0.7562220000 0.4078280000 0.0000000000
0.7904020000 0.4079190000 0.0000000000
0.8160980000 0.4078130000 0.0000000000
0.8355690000 0.4069580000 0.0000000000
0.8509350000 0.4062710000 0.0000000000
0.8637520000 0.4068510000 0.0000000000
0.8740670000 0.4089570000 0.0000000000
0.8816660000 0.4120390000 0.0000000000
0.8879070000 0.4159300000 0.0000000000
0.8935990000 0.4206300000 0.0000000000
0.8981160000 0.4262150000 0.0000000000
0.9019610000 0.4319980000 0.0000000000
0.9058520000 0.4376590000 0.0000000000
0.0000000000 0.2521860000 0.0474560000
0.0000000000 0.2553440000 0.0472420000
0.0000000000 0.2580910000 0.0473180000
0.0000000000 0.2625920000 0.0459600000
0.0000000000 0.2699170000 0.0400090000
0.0000000000 0.2775770000 0.0237280000
0.0000000000 0.2879070000 0.0122070000
0.0000000000 0.3027240000 0.0001530000
0.0000000000 0.3205310000 0.0000000000
0.0000000000 0.3403680000 0.0000000000
0.0435800000 0.3629510000 0.0000000000
0.1977420000 0.3792630000 0.0000000000
0.2776380000 0.3956210000 0.0000000000
0.3494470000 0.4118560000 0.0000000000
0.4196990000 0.4260010000 0.0000000000
0.4929580000 0.4377970000 0.0000000000
0.5672540000 0.4480810000 0.0000000000
0.6332490000 0.4567330000 0.0000000000
0.6869150000 0.4629890000 0.0000000000
0.7344320000 0.4664990000 0.0000000000
0.7767610000 0.4681770000 0.0000000000
0.8116270000 0.4691230000 0.0000000000
0.8379490000 0.4694900000 0.0000000000
0.8577400000 0.4687570000 0.0000000000
0.8731520000 0.4679940000 0.0000000000
0.8861520000 0.4685590000 0.0000000000
0.8964060000 0.4707100000 0.0000000000
0.9040360000 0.4738380000 0.0000000000
0.9102620000 0.4776680000 0.0000000000
0.9158160000 0.4820940000 0.0000000000
0.9200120000 0.4873120000 0.0000000000
0.9234910000 0.4926830000 0.0000000000
0.9271690000 0.4978870000 0.0000000000
0.0000000000 0.2807660000 0.0282440000
0.0000000000 0.2842910000 0.0224310000
0.0000000000 0.2873880000 0.0186010000
0.0000000000 0.2923020000 0.0099030000
0.0000000000 0.3003130000 0.0066530000
0.0000000000 0.3087050000 0.0008390000
0.0000000000 0.3199050000 0.0000000000
0.0000000000 0.3356830000 0.0000000000
0.0000000000 0.3546350000 0.0000000000
0.0000150000 0.3760890000 0.0000000000
0.0166320000 0.4005800000 0.0000000000
0.1805450000 0.4214390000 0.0000000000
0.2750130000 0.4394750000 0.0000000000
0.3523770000 0.4576030000 0.0000000000
0.4266120000 0.4736250000 0.0000000000
0.5032580000 0.4869920000 0.0000000000
0.5800260000 0.4990620000 0.0000000000
0.6482800000 0.5090710000 0.0000000000
0.7035020000 0.5165640000 0.0000000000
0.7522700000 0.5213400000 0.0000000000
0.7956970000 0.5241170000 0.0000000000
0.8314490000 0.5259020000 0.0000000000
0.8582280000 0.5267410000 0.0000000000
0.8782330000 0.5261920000 0.0000000000
0.8939650000 0.5254440000 0.0000000000
0.9069660000 0.5260240000 0.0000000000
0.9174030000 0.5281910000 0.0000000000
0.9249260000 0.5312280000 0.0000000000
0.9310290000 0.5348590000 0.0000000000
0.9364610000 0.5389330000 0.0000000000
0.9404750000 0.5436790000 0.0000000000
0.9437250000 0.5487450000 0.0000000000
0.9470510000 0.5536130000 0.0000000000
0.0000000000 0.3054860000 0.0007930000
0.0000000000 0.3094380000 0.0005340000
0.0000000000 0.3128400000 0.0003660000
0.0000000000 0.3180740000 0.0000000000
0.0000000000 0.3265280000 0.0000000000
0.0000000000 0.3359880000 0.0000000000
0.0000000000 0.3478750000 0.0000000000
0.0000000000 0.3645840000 0.0000000000
0.0000000000 0.3846340000 0.0000000000
0.0000000000 0.4072330000 0.0000000000
0.0133060000 0.4332800000 0.0000000000
0.1547420000 0.4581060000 0.0000000000
0.2710610000 0.4776840000 0.0000000000
0.3537800000 0.4973370000 0.0000000000
0.4318150000 0.5150230000 0.0000000000
0.5111310000 0.5298390000 0.0000000000
0.5903870000 0.5433890000 0.0000000000
0.6603950000 0.5548180000 0.0000000000
0.7172050000 0.5635770000 0.0000000000
0.7670710000 0.5692530000 0.0000000000
