Print+Film+Emulation+LUTs/Rec709_Kodak_2393_D65.cube
TITLE "Generate by Resolve"
LUT_3D_SIZE 5
0.0061490000 0.0061490000 0.0061490000
0.0668040000 0.0243080000 0.0070950000
0.3224990000 0.0026700000 0.0023040000
0.5109940000 0.0010070000 0.0008550000
0.5659110000 0.0000000000 0.0000000000
0.0056000000 0.0648970000 0.0249790000
0.1026020000 0.0963000000 0.0064090000
0.4535290000 0.1068890000 0.0008550000
0.6614940000 0.0000460000 0.0000000000
0.7015030000 0.0000000000 0.0000000000
0.0034490000 0.2384370000 0.0022130000
0.0015110000 0.3429160000 0.0008550000
0.5965360000 0.4717780000 0.0000000000
0.8587010000 0.4841840000 0.0000000000
0.8994580000 0.4846880000 0.0000000000
0.0012970000 0.3542380000 0.0008240000
0.0000000000 0.5103990000 0.0000000000
0.6508890000 0.7084920000 0.0000000000
0.9593650000 0.7691620000 0.0000000000
1.0000000000 0.7808650000 0.0000000000
0.0000000000 0.4048980000 0.0000000000
0.0000000000 0.5922030000 0.0000000000
0.6820480000 0.7523920000 0.0000000000
0.9799500000 0.8158390000 0.0000000000
1.0000000000 0.8467990000 0.0000000000
0.0057680000 0.0043640000 0.0693370000
0.0771190000 0.0123600000 0.0837260000
0.3426110000 0.0010070000 0.0742810000
0.5447470000 0.0000000000 0.0000000000
0.5997710000 0.0000000000 0.0000000000
0.0035400000 0.0719160000 0.1042500000
0.0995140000 0.1064723333 0.1136340000
0.4663156667 0.1210093333 0.0866153333
0.6880393333 0.0124970000 0.0221153333
0.7299310000 0.0001370000 0.0000000000
0.0013280000 0.2699470000 0.1396510000
0.0000000000 0.3738360000 0.1207700000
0.6008543333 0.5103633333 0.0001423333
0.8809340000 0.5158666667 0.0000000000
0.9248800000 0.5178150000 0.0000000000
0.0000000000 0.3929960000 0.1599910000
0.0000000000 0.5465326667 0.0899113333
0.6303450000 0.7517663333 0.0000000000
0.9646400000 0.8106763333 0.0000000000
1.0000000000 0.8241090000 0.0000000000
0.0000000000 0.4468450000 0.2583200000
0.0000000000 0.6289920000 0.2540020000
0.6399480000 0.8061340000 0.1588460000
0.9544060000 0.8697640000 0.0000000000
1.0000000000 0.8823220000 0.0000000000
0.0035400000 0.0026700000 0.2739150000
0.0032200000 0.0010070000 0.3165480000
0.3548490000 0.0000000000 0.3710380000
0.5634700000 0.0000000000 0.3741970000
0.6164640000 0.0000000000 0.3746700000
0.0013280000 0.0410930000 0.3747460000
0.0169376667 0.1077490000 0.4195313333
0.4818393333 0.1025610000 0.4794996667
0.7051296667 0.0000000000 0.4745810000
0.7467310000 0.0000000000 0.4659500000
0.0000000000 0.3152210000 0.4840010000
0.0000000000 0.4150706667 0.5323873333
0.5692530000 0.5767403333 0.5896646667
0.8722666667 0.5847463333 0.5805753333
0.9152670000 0.5837950000 0.5662470000
0.0000000000 0.4564430000 0.5373460000
0.0000000000 0.6070803333 0.5887743333
0.5534143333 0.8463773333 0.6353653333
0.9312376667 0.9061723333 0.6162560000
0.9872430000 0.9100790000 0.5983520000
0.0000000000 0.5032120000 0.6066380000
0.0000000000 0.6855570000 0.6752580000
0.5752500000 0.8883040000 0.7277640000
0.9339590000 0.9521630000 0.7290300000
0.9932400000 0.9596550000 0.7168840000
0.0013280000 0.0010070000 0.3967350000
0.0000000000 0.0000000000 0.4540630000
0.3607230000 0.0000000000 0.5455710000
0.5893950000 0.0000000000 0.5713440000
0.6431830000 0.0000000000 0.5825440000
0.0000000000 0.0000000000 0.5267570000
0.0000000000 0.0653646667 0.5942223333
0.4902773333 0.0643830000 0.6970370000
0.7329873333 0.0000000000 0.7187003333
0.7787750000 0.0000000000 0.7232470000
0.0000000000 0.3211870000 0.6616770000
0.0000000000 0.4159460000 0.7373463333
0.5460796667 0.5859466667 0.8511636667
0.8825210000 0.5937743333 0.8755320000
0.9330130000 0.5922940000 0.8737320000
0.0000000000 0.4809950000 0.7206680000
0.0000000000 0.6260926667 0.8032960000
0.4930803333 0.8813050000 0.9130033333
0.9285216667 0.9470310000 0.9405916667
0.9954830000 0.9541470000 0.9409020000
0.0000000000 0.5234610000 0.7520560000
0.0000000000 0.7019460000 0.8463720000
0.5298240000 0.9150220000 0.9346760000
0.9297780000 0.9846950000 0.9647210000
0.9996950000 0.9956360000 0.9654380000
0.0000000000 0.0000000000 0.4548870000
0.0000000000 0.0000000000 0.5211110000
0.4028380000 0.0000000000 0.6260470000
0.6431830000 0.0000000000 0.6598310000
0.6978410000 0.0000000000 0.6746930000
0.0000000000 0.0433360000 0.5657130000
0.0000760000 0.1276720000 0.6380710000
0.5088580000 0.1767910000 0.7550320000
0.7747460000 0.0752880000 0.7851990000
0.8268410000 0.0784920000 0.7951480000
0.0000000000 0.3249260000 0.6819410000
0.0000000000 0.4192110000 0.7617000000
0.5375600000 0.5915920000 0.8832530000
0.8821850000 0.5996190000 0.9150530000
0.9372400000 0.5976960000 0.9187760000
0.0000000000 0.4835130000 0.7432970000
0.0000000000 0.6266880000 0.8281380000
0.4763870000 0.8792400000 0.9453270000
0.9253220000 0.9473260000 0.9840390000
0.9956210000 0.9530790000 0.9877620000
0.0000000000 0.5332570000 0.7709770000
0.0000000000 0.7047990000 0.8675670000
0.5083390000 0.9149920000 0.9579160000
0.9235220000 0.9872130000 0.9944300000
0.9999850000 0.9999850000 1.0000000000
