Print+Film+Emulation+LUTs/Rec709_Kodak_2383_D65.cube
TITLE "Generate by Resolve"
LUT_3D_SIZE 5
0.0281830000 0.0281830000 0.0281830000
0.0757610000 0.0388190000 0.0347750000
0.3405200000 0.0000000000 0.0000000000
0.5810790000 0.0000000000 0.0000000000
0.6446780000 0.0000000000 0.0000000000
0.0000000000 0.0720680000 0.0506290000
0.0906390000 0.0931560000 0.0519110000
0.4348210000 0.1145950000 0.0000000000
0.6942860000 0.0000610000 0.0000000000
0.7535520000 0.0000000000 0.0000000000
0.0000000000 0.2521860000 0.0474560000
0.0000000000 0.3205310000 0.0000000000
0.5672540000 0.4480810000 0.0000000000
0.8731520000 0.4679940000 0.0000000000
0.9271690000 0.4978870000 0.0000000000
0.0000000000 0.3984440000 0.0000000000
0.0000000000 0.5026930000 0.0000000000
0.6175170000 0.7137560000 0.0000000000
0.9711910000 0.7800110000 0.0000000000
1.0000000000 0.8053560000 0.0000000000
0.0000000000 0.4575270000 0.0000000000
0.0000000000 0.5940790000 0.0000000000
0.6521400000 0.7702300000 0.0000000000
0.9878390000 0.8388650000 0.0000000000
1.0000000000 0.8739910000 0.0000000000
0.0127260000 0.0290990000 0.0856640000
0.0781110000 0.0408030000 0.0940570000
0.3603270000 0.0000000000 0.0897690000
0.6063020000 0.0000000000 0.0158390000
0.6700540000 0.0000000000 0.0000000000
0.0000000000 0.0799420000 0.1137870000
0.0932833333 0.1067976667 0.1175863333
0.4569923333 0.1336943333 0.1136493333
0.7245643333 0.0303246667 0.0580656667
0.7849700000 0.0568860000 0.0625010000
0.0000000000 0.2815290000 0.1584950000
0.0000000000 0.3556876667 0.1604740000
0.5843850000 0.5006230000 0.0537880000
0.9019150000 0.5206226667 0.0001120000
0.9564970000 0.5537040000 0.0003510000
0.0000000000 0.4323950000 0.1838410000
0.0000000000 0.5434040000 0.1675593333
0.6145370000 0.7688666667 0.0000510000
0.9868466667 0.8366773333 0.0000253333
1.0000000000 0.8706340000 0.0000000000
0.0000000000 0.4943920000 0.3177540000
0.0000000000 0.6349740000 0.3311970000
0.6252540000 0.8329900000 0.2942090000
0.9849240000 0.9043410000 0.2335090000
1.0000000000 0.9363700000 0.2477300000
0.0000000000 0.0000000000 0.2954600000
0.0087590000 0.0000000000 0.3221180000
0.3693290000 0.0000000000 0.3645840000
0.6223240000 0.0000000000 0.3752650000
0.6852060000 0.0000000000 0.3896390000
0.0000000000 0.0633860000 0.3640500000
0.0019990000 0.1089953333 0.3987740000
0.4723583333 0.1325400000 0.4484830000
0.7455713333 0.0307873333 0.4565956667
0.8055390000 0.0667430000 0.4752270000
0.0000000000 0.3214310000 0.4762800000
0.0000000000 0.3955186667 0.5165333333
0.5607896667 0.5625136667 0.5673610000
0.9022203333 0.5841560000 0.5699956667
0.9560540000 0.6191200000 0.5823610000
0.0000000000 0.4807660000 0.5392080000
0.0000000000 0.5910226667 0.5815216667
0.5432670000 0.8446986667 0.6244906667
0.9629156667 0.9144986667 0.6216170000
1.0000000000 0.9348130000 0.6290380000
0.0000000000 0.5318990000 0.6254670000
0.0000000000 0.6719310000 0.6772870000
0.5586020000 0.8904860000 0.7203330000
0.9549550000 0.9610590000 0.7257340000
1.0000000000 0.9766540000 0.7279770000
0.0000000000 0.0000000000 0.4634160000
0.0000000000 0.0000000000 0.4979020000
0.3652860000 0.0000000000 0.5687500000
0.6304570000 0.0000000000 0.5968410000
0.6949870000 0.0000000000 0.6133360000
0.0000000000 0.0000000000 0.5590140000
0.0000050000 0.0546780000 0.6038856667
0.4798043333 0.0789043333 0.6853740000
0.7590450000 0.0062306667 0.7103376667
0.8230110000 0.0000000000 0.7313040000
0.0000000000 0.3325090000 0.6973680000
0.0000000000 0.4055543333 0.7498080000
0.5312476667 0.5847410000 0.8411993333
0.8965996667 0.6054323333 0.8654863333
0.9530170000 0.6404820000 0.8774090000
0.0000000000 0.5013200000 0.7612270000
0.0000000000 0.6096640000 0.8178583333
0.4720480000 0.8765443333 0.9064823333
0.9405816667 0.9474633333 0.9329163333
1.0000000000 0.9592130000 0.9371630000
0.0000000000 0.5480580000 0.7966130000
0.0000000000 0.6854350000 0.8597700000
0.5066450000 0.9143360000 0.9324790000
0.9358510000 0.9869380000 0.9581900000
1.0000000000 0.9979250000 0.9607390000
0.0000000000 0.0000000000 0.5580530000
0.0000000000 0.0000000000 0.6030210000
0.4388190000 0.0000000000 0.6855570000
0.7110700000 0.0000000000 0.7173270000
0.7766990000 0.0000000000 0.7386430000
0.0000000000 0.1191420000 0.6421760000
0.0000000000 0.1771270000 0.6941330000
0.5058370000 0.2604560000 0.7846190000
0.8104220000 0.2335700000 0.8151670000
0.8706190000 0.2811930000 0.8335700000
0.0000000000 0.3565580000 0.7467310000
0.0000000000 0.4366520000 0.8040590000
0.5198140000 0.6239260000 0.9009690000
0.9001750000 0.6484470000 0.9317620000
0.9588310000 0.6773020000 0.9406880000
0.0000000000 0.5067670000 0.8007480000
0.0000000000 0.6176390000 0.8609600000
0.4626690000 0.8803230000 0.9551840000
0.9328760000 0.9515070000 0.9886170000
0.9975740000 0.9614710000 0.9918210000
0.0000000000 0.5575950000 0.8275580000
0.0000000000 0.6910200000 0.8896620000
0.4839090000 0.9149770000 0.9648890000
0.9262840000 0.9893340000 0.9962010000
1.0000000000 0.9999850000 0.9999540000
