Print+Film+Emulation+LUTs/Rec709_Kodak_2393_D65.cube
TITLE "Generate by Resolve"
LUT_3D_SIZE 33
0.0061490000 0.0061490000 0.0061490000
0.0083770000 0.0059210000 0.0091710000
0.0117650000 0.0059660000 0.0082250000
0.0184480000 0.0063480000 0.0072020000
0.0235600000 0.0086670000 0.0071410000
0.0236970000 0.0131380000 0.0081940000
0.0305330000 0.0180360000 0.0092770000
0.0481420000 0.0218660000 0.0089110000
0.0668040000 0.0243080000 0.0070950000
0.0844130000 0.0257720000 0.0047150000
0.1100180000 0.0233160000 0.0036010000
0.1431140000 0.0109860000 0.0032040000
0.1768980000 0.0035100000 0.0030210000
0.2102850000 0.0032960000 0.0028380000
0.2454870000 0.0030980000 0.0026550000
0.2835130000 0.0028840000 0.0024720000
0.3224990000 0.0026700000 0.0023040000
0.3581750000 0.0024720000 0.0021210000
0.3888300000 0.0022580000 0.0019380000
0.4164340000 0.0020450000 0.0017550000
0.4414890000 0.0018460000 0.0015720000
0.4632180000 0.0016330000 0.0014040000
0.4816210000 0.0014190000 0.0012210000
0.4972300000 0.0012050000 0.0010380000
0.5109940000 0.0010070000 0.0008550000
0.5229270000 0.0007930000 0.0006870000
0.5335620000 0.0005800000 0.0005040000
0.5427020000 0.0003810000 0.0003200000
0.5502710000 0.0001680000 0.0001370000
0.5561300000 0.0000000000 0.0000000000
0.5599910000 0.0000000000 0.0000000000
0.5629050000 0.0000000000 0.0000000000
0.5659110000 0.0000000000 0.0000000000
0.0076140000 0.0154120000 0.0049740000
0.0086370000 0.0152290000 0.0099490000
0.0124970000 0.0151370000 0.0098730000
0.0197600000 0.0159300000 0.0095670000
0.0249330000 0.0184940000 0.0097200000
0.0257880000 0.0229650000 0.0105590000
0.0323800000 0.0276340000 0.0110930000
0.0509040000 0.0303040000 0.0100860000
0.0704510000 0.0319830000 0.0076450000
0.0881670000 0.0334170000 0.0046390000
0.1143820000 0.0314790000 0.0034180000
0.1488210000 0.0201110000 0.0030210000
0.1841920000 0.0055240000 0.0028380000
0.2189210000 0.0030980000 0.0026550000
0.2551610000 0.0028840000 0.0024720000
0.2939350000 0.0026700000 0.0023040000
0.3336230000 0.0024720000 0.0021210000
0.3701990000 0.0022580000 0.0019380000
0.4013120000 0.0020450000 0.0017550000
0.4291290000 0.0018460000 0.0015720000
0.4544140000 0.0016330000 0.0014040000
0.4764020000 0.0014190000 0.0012210000
0.4946970000 0.0012050000 0.0010380000
0.5104600000 0.0010070000 0.0008550000
0.5239490000 0.0007930000 0.0006870000
0.5357290000 0.0005800000 0.0005040000
0.5456930000 0.0003810000 0.0003200000
0.5540550000 0.0001680000 0.0001370000
0.5611350000 0.0000000000 0.0000000000
0.5665980000 0.0000000000 0.0000000000
0.5701690000 0.0000000000 0.0000000000
0.5729000000 0.0000000000 0.0000000000
0.5758600000 0.0000000000 0.0000000000
0.0075840000 0.0196080000 0.0052340000
0.0086980000 0.0191810000 0.0111540000
0.0131840000 0.0187530000 0.0122530000
0.0209350000 0.0191960000 0.0128330000
0.0263070000 0.0215760000 0.0132600000
0.0273750000 0.0258490000 0.0137330000
0.0346840000 0.0298160000 0.0135190000
0.0543680000 0.0318000000 0.0116120000
0.0743570000 0.0335240000 0.0083770000
0.0927440000 0.0352640000 0.0045780000
0.1196920000 0.0337830000 0.0032650000
0.1555960000 0.0233310000 0.0028380000
0.1924930000 0.0074160000 0.0026550000
0.2284430000 0.0035100000 0.0024720000
0.2654610000 0.0027920000 0.0023040000
0.3050890000 0.0025480000 0.0021210000
0.3457850000 0.0023350000 0.0019380000
0.3829560000 0.0021210000 0.0017550000
0.4144350000 0.0019070000 0.0015720000
0.4424960000 0.0016780000 0.0014040000
0.4677810000 0.0014650000 0.0012210000
0.4896770000 0.0012510000 0.0010380000
0.5079420000 0.0010380000 0.0008550000
0.5234450000 0.0008240000 0.0006870000
0.5367670000 0.0006100000 0.0005040000
0.5480120000 0.0003810000 0.0003200000
0.5573210000 0.0001680000 0.0001370000
0.5648890000 0.0000000000 0.0000000000
0.5709770000 0.0000000000 0.0000000000
0.5759210000 0.0000000000 0.0000000000
0.5794610000 0.0000000000 0.0000000000
0.5822690000 0.0000000000 0.0000000000
0.5852450000 0.0000000000 0.0000000000
0.0073240000 0.0263220000 0.0059510000
0.0078130000 0.0261540000 0.0131840000
0.0116580000 0.0259860000 0.0151670000
0.0205690000 0.0265200000 0.0164030000
0.0268560000 0.0281830000 0.0169680000
0.0281830000 0.0308540000 0.0170600000
0.0364540000 0.0333410000 0.0161290000
0.0578160000 0.0351870000 0.0132910000
0.0784010000 0.0376130000 0.0090330000
0.0981920000 0.0402690000 0.0045010000
0.1261160000 0.0399330000 0.0030670000
0.1633630000 0.0334480000 0.0026700000
0.2017550000 0.0190740000 0.0024720000
0.2393380000 0.0059660000 0.0023040000
0.2776680000 0.0031740000 0.0021210000
0.3179980000 0.0023500000 0.0019380000
0.3593960000 0.0021210000 0.0017550000
0.3973140000 0.0019070000 0.0015720000
0.4291910000 0.0016780000 0.0014040000
0.4573740000 0.0014650000 0.0012210000
0.4827650000 0.0012510000 0.0010380000
0.5046920000 0.0010380000 0.0008550000
0.5228500000 0.0008240000 0.0006870000
0.5382310000 0.0006100000 0.0005040000
0.5512470000 0.0003810000 0.0003200000
0.5621580000 0.0001680000 0.0001370000
0.5707640000 0.0000000000 0.0000000000
0.5774320000 0.0000000000 0.0000000000
0.5829710000 0.0000000000 0.0000000000
0.5876710000 0.0000000000 0.0000000000
0.5910280000 0.0000000000 0.0000000000
0.5937590000 0.0000000000 0.0000000000
0.5966430000 0.0000000000 0.0000000000
0.0066990000 0.0318910000 0.0083160000
0.0071110000 0.0320440000 0.0169380000
0.0083010000 0.0323030000 0.0191650000
0.0190740000 0.0329290000 0.0204620000
0.0267800000 0.0342260000 0.0209350000
0.0282600000 0.0361790000 0.0207980000
0.0376130000 0.0384680000 0.0193640000
0.0614940000 0.0410770000 0.0156100000
0.0834060000 0.0448310000 0.0100560000
0.1047380000 0.0490880000 0.0045010000
0.1343100000 0.0505840000 0.0028990000
0.1726100000 0.0470280000 0.0024870000
0.2130620000 0.0390940000 0.0023040000
0.2529950000 0.0265510000 0.0021210000
0.2928050000 0.0047300000 0.0019380000
0.3340660000 0.0023190000 0.0017550000
0.3761200000 0.0019230000 0.0015720000
0.4145420000 0.0016780000 0.0014040000
0.4468300000 0.0014650000 0.0012210000
0.4753190000 0.0012510000 0.0010380000
0.5009840000 0.0010380000 0.0008550000
0.5230330000 0.0008240000 0.0006870000
0.5411460000 0.0006100000 0.0005040000
0.5564200000 0.0003810000 0.0003200000
0.5692230000 0.0001680000 0.0001370000
0.5797510000 0.0000000000 0.0000000000
0.5879150000 0.0000000000 0.0000000000
0.5939270000 0.0000000000 0.0000000000
0.5988860000 0.0000000000 0.0000000000
0.6032960000 0.0000000000 0.0000000000
0.6066380000 0.0000000000 0.0000000000
0.6094000000 0.0000000000 0.0000000000
0.6122990000 0.0000000000 0.0000000000
0.0065160000 0.0344090000 0.0136570000
0.0070800000 0.0348970000 0.0222780000
0.0073240000 0.0355380000 0.0240180000
0.0177160000 0.0365450000 0.0249180000
0.0266270000 0.0381320000 0.0250860000
0.0281680000 0.0402690000 0.0249330000
0.0385440000 0.0428930000 0.0234840000
0.0650340000 0.0461890000 0.0191810000
0.0894790000 0.0507970000 0.0123750000
0.1122450000 0.0555730000 0.0046540000
0.1434650000 0.0573430000 0.0027620000
0.1838410000 0.0562910000 0.0023040000
0.2260620000 0.0522770000 0.0021210000
0.2675820000 0.0424350000 0.0019380000
0.3097890000 0.0129850000 0.0017550000
0.3517360000 0.0036010000 0.0015720000
0.3945680000 0.0020450000 0.0014040000
0.4335700000 0.0015560000 0.0012210000
0.4662390000 0.0012660000 0.0010380000
0.4951250000 0.0010380000 0.0008550000
0.5210650000 0.0008240000 0.0006870000
0.5430990000 0.0006100000 0.0005040000
0.5614250000 0.0003810000 0.0003200000
0.5764550000 0.0001680000 0.0001370000
0.5891360000 0.0000000000 0.0000000000
0.5992980000 0.0000000000 0.0000000000
0.6069580000 0.0000000000 0.0000000000
0.6126960000 0.0000000000 0.0000000000
0.6173950000 0.0000000000 0.0000000000
0.6214850000 0.0000000000 0.0000000000
0.6246890000 0.0000000000 0.0000000000
0.6273590000 0.0000000000 0.0000000000
0.6301670000 0.0000000000 0.0000000000
0.0061490000 0.0397340000 0.0196080000
0.0059510000 0.0408640000 0.0273900000
0.0057370000 0.0422980000 0.0283510000
0.0115660000 0.0444040000 0.0286410000
0.0228430000 0.0467990000 0.0285040000
0.0235450000 0.0492560000 0.0282750000
0.0370640000 0.0522320000 0.0268100000
0.0673080000 0.0561230000 0.0217290000
0.0953380000 0.0606090000 0.0132300000
0.1202110000 0.0651560000 0.0044100000
0.1533380000 0.0682690000 0.0025480000
0.1953770000 0.0688030000 0.0021210000
0.2393220000 0.0677960000 0.0019380000
0.2827950000 0.0642400000 0.0017550000
0.3261310000 0.0525220000 0.0015720000
0.3707790000 0.0177310000 0.0014040000
0.4146330000 0.0070650000 0.0012210000
0.4543830000 0.0027920000 0.0010380000
0.4875720000 0.0014500000 0.0008550000
0.5167470000 0.0009000000 0.0006870000
0.5429160000 0.0006260000 0.0005040000
0.5653770000 0.0003970000 0.0003200000
0.5835200000 0.0001680000 0.0001370000
0.5986720000 0.0000000000 0.0000000000
0.6108800000 0.0000000000 0.0000000000
0.6209660000 0.0000000000 0.0000000000
0.6283970000 0.0000000000 0.0000000000
0.6336920000 0.0000000000 0.0000000000
0.6380410000 0.0000000000 0.0000000000
0.6421300000 0.0000000000 0.0000000000
0.6453960000 0.0000000000 0.0000000000
0.6480960000 0.0000000000 0.0000000000
0.6508580000 0.0000000000 0.0000000000
0.0058750000 0.0516980000 0.0232240000
0.0056000000 0.0533610000 0.0302130000
0.0053410000 0.0555280000 0.0305180000
0.0050660000 0.0589000000 0.0303500000
0.0092010000 0.0625010000 0.0299380000
0.0091550000 0.0650490000 0.0294500000
0.0263830000 0.0686050000 0.0276650000
0.0677200000 0.0726790000 0.0207370000
0.0994280000 0.0777750000 0.0095060000
0.1271230000 0.0837420000 0.0034790000
0.1621420000 0.0888840000 0.0022430000
0.2059360000 0.0917980000 0.0019380000
0.2520640000 0.0935230000 0.0017550000
0.2973220000 0.0935230000 0.0015720000
0.3422140000 0.0895250000 0.0014040000
0.3883270000 0.0788130000 0.0012210000
0.4350650000 0.0541240000 0.0010380000
0.4768750000 0.0339970000 0.0008550000
0.5116810000 0.0073550000 0.0006870000
0.5414050000 0.0017850000 0.0005040000
0.5679100000 0.0007320000 0.0003200000
0.5904630000 0.0003660000 0.0001370000
0.6086060000 0.0000000000 0.0000000000
0.6233620000 0.0000000000 0.0000000000
0.6354470000 0.0000000000 0.0000000000
0.6452120000 0.0000000000 0.0000000000
0.6526590000 0.0000000000 0.0000000000
0.6578930000 0.0000000000 0.0000000000
0.6620890000 0.0000000000 0.0000000000
0.6660720000 0.0000000000 0.0000000000
0.6692450000 0.0000000000 0.0000000000
0.6719770000 0.0000000000 0.0000000000
0.6748150000 0.0000000000 0.0000000000
0.0056000000 0.0648970000 0.0249790000
0.0053410000 0.0669570000 0.0315860000
0.0050660000 0.0695810000 0.0318300000
0.0047910000 0.0733650000 0.0315400000
0.0045320000 0.0776990000 0.0309450000
0.0042570000 0.0803390000 0.0301520000
0.0172580000 0.0844280000 0.0278480000
0.0669870000 0.0896160000 0.0189970000
0.1026020000 0.0963000000 0.0064090000
0.1326770000 0.1035930000 0.0026860000
0.1697870000 0.1096360000 0.0019680000
0.2159460000 0.1141680000 0.0017550000
0.2639960000 0.1177390000 0.0015720000
0.3108870000 0.1199970000 0.0014040000
0.3575650000 0.1195090000 0.0012210000
0.4050350000 0.1148390000 0.0010380000
0.4535290000 0.1068890000 0.0008550000
0.4976580000 0.0954600000 0.0006870000
0.5343400000 0.0737620000 0.0005040000
0.5662620000 0.0541540000 0.0003200000
0.5947050000 0.0192110000 0.0001370000
0.6176700000 0.0000000000 0.0000000000
0.6355380000 0.0000000000 0.0000000000
0.6497140000 0.0000000000 0.0000000000
0.6614940000 0.0000460000 0.0000000000
0.6710460000 0.0000000000 0.0000000000
0.6785530000 0.0000000000 0.0000000000
0.6841230000 0.0000000000 0.0000000000
0.6886240000 0.0000000000 0.0000000000
0.6926830000 0.0000000000 0.0000000000
0.6959030000 0.0000000000 0.0000000000
0.6986500000 0.0000000000 0.0000000000
0.7015030000 0.0000000000 0.0000000000
0.0053410000 0.0785230000 0.0262910000
0.0050660000 0.0812540000 0.0326700000
0.0047910000 0.0839400000 0.0329900000
0.0045320000 0.0875260000 0.0326700000
0.0042570000 0.0917220000 0.0318150000
0.0039830000 0.0947130000 0.0305030000
0.0140080000 0.0998860000 0.0273750000
0.0640270000 0.1068740000 0.0160830000
0.1050430000 0.1140310000 0.0046080000
0.1376820000 0.1226830000 0.0022130000
0.1771270000 0.1309680000 0.0017700000
0.2253450000 0.1363550000 0.0015720000
0.2752420000 0.1409020000 0.0014040000
0.3242240000 0.1444110000 0.0012210000
0.3722590000 0.1458000000 0.0010380000
0.4218050000 0.1443350000 0.0008550000
0.4719620000 0.1404440000 0.0006870000
0.5175860000 0.1346760000 0.0005040000
0.5554280000 0.1274590000 0.0003200000
0.5886630000 0.1153120000 0.0001370000
0.6182350000 0.0999770000 0.0000000000
0.6428630000 0.0822000000 0.0000000000
0.6623640000 0.0611280000 0.0000000000
0.6774550000 0.0076750000 0.0000000000
0.6887620000 0.0000000000 0.0000000000
0.6982380000 0.0000000000 0.0000000000
0.7059430000 0.0000000000 0.0000000000
0.7119550000 0.0000000000 0.0000000000
0.7170060000 0.0000000000 0.0000000000
0.7213250000 0.0000000000 0.0000000000
0.7246510000 0.0000000000 0.0000000000
0.7274590000 0.0000000000 0.0000000000
0.7303880000 0.0000000000 0.0000000000
0.0050660000 0.0953080000 0.0262150000
0.0047910000 0.0981000000 0.0321660000
0.0045320000 0.1015490000 0.0323490000
0.0042570000 0.1061110000 0.0316620000
0.0039830000 0.1111620000 0.0296940000
0.0037230000 0.1148390000 0.0265510000
0.0077520000 0.1207750000 0.0198370000
0.0534370000 0.1298850000 0.0077360000
0.1044480000 0.1387050000 0.0028230000
0.1408560000 0.1483790000 0.0018460000
0.1833830000 0.1579310000 0.0015720000
0.2338900000 0.1652550000 0.0014040000
0.2862590000 0.1711450000 0.0012210000
0.3370260000 0.1763030000 0.0010380000
0.3872890000 0.1796140000 0.0008550000
0.4383460000 0.1806060000 0.0006870000
0.4905930000 0.1797360000 0.0005040000
0.5378650000 0.1772340000 0.0003200000
0.5767760000 0.1731590000 0.0001370000
0.6108640000 0.1669180000 0.0000000000
0.6410470000 0.1585410000 0.0000000000
0.6663460000 0.1491720000 0.0000000000
0.6859080000 0.1413600000 0.0000000000
0.7011370000 0.1333180000 0.0000000000
0.7133290000 0.1233690000 0.0000000000
0.7237510000 0.1153280000 0.0000000000
0.7320520000 0.1106280000 0.0000000000
0.7384450000 0.1097730000 0.0000000000
0.7437250000 0.1107350000 0.0000000000
0.7482570000 0.1122300000 0.0000000000
0.7514460000 0.1153580000 0.0000000000
0.7539790000 0.1188220000 0.0000000000
0.7566800000 0.1216140000 0.0000000000
0.0047910000 0.1169150000 0.0224160000
0.0045320000 0.1202560000 0.0271150000
0.0042570000 0.1240100000 0.0263520000
0.0039830000 0.1288470000 0.0236670000
0.0037230000 0.1349810000 0.0176240000
0.0034490000 0.1405200000 0.0113680000
0.0031740000 0.1478600000 0.0049590000
0.0370950000 0.1593650000 0.0028990000
0.0983290000 0.1705350000 0.0019380000
0.1407800000 0.1816740000 0.0015870000
0.1878080000 0.1926600000 0.0014040000
0.2415960000 0.2013730000 0.0012210000
0.2968490000 0.2094760000 0.0010380000
0.3501950000 0.2166480000 0.0008550000
0.4023190000 0.2218510000 0.0006870000
0.4554210000 0.2247810000 0.0005040000
0.5093610000 0.2261690000 0.0003200000
0.5581900000 0.2261230000 0.0001370000
0.5982760000 0.2246740000 0.0000000000
0.6330660000 0.2211030000 0.0000000000
0.6639660000 0.2156250000 0.0000000000
0.6897230000 0.2101630000 0.0000000000
0.7096670000 0.2051580000 0.0000000000
0.7252160000 0.1998630000 0.0000000000
0.7374840000 0.1941860000 0.0000000000
0.7479210000 0.1903110000 0.0000000000
0.7563590000 0.1886630000 0.0000000000
0.7626460000 0.1884180000 0.0000000000
0.7678030000 0.1889070000 0.0000000000
0.7722590000 0.1897610000 0.0000000000
0.7754940000 0.1913630000 0.0000000000
0.7780420000 0.1934390000 0.0000000000
0.7806970000 0.1954380000 0.0000000000
0.0045320000 0.1390710000 0.0114290000
0.0042570000 0.1430840000 0.0125280000
0.0039830000 0.1475090000 0.0112150000
0.0037230000 0.1529110000 0.0084080000
0.0034490000 0.1597920000 0.0048830000
0.0031740000 0.1667810000 0.0033570000
0.0029140000 0.1762260000 0.0023800000
0.0114750000 0.1905240000 0.0018460000
0.0809490000 0.2042270000 0.0015870000
0.1379870000 0.2168310000 0.0014040000
0.1907530000 0.2288550000 0.0012210000
0.2492260000 0.2393990000 0.0010380000
0.3078360000 0.2494390000 0.0008550000
0.3639580000 0.2582130000 0.0006870000
0.4183870000 0.2652780000 0.0005040000
0.4732280000 0.2699470000 0.0003200000
0.5289080000 0.2725870000 0.0001370000
0.5789880000 0.2738230000 0.0000000000
0.6198830000 0.2737930000 0.0000000000
0.6555430000 0.2718550000 0.0000000000
0.6870830000 0.2686050000 0.0000000000
0.7133900000 0.2649730000 0.0000000000
0.7341120000 0.2613720000 0.0000000000
0.7500880000 0.2572980000 0.0000000000
0.7630270000 0.2533610000 0.0000000000
0.7735410000 0.2505380000 0.0000000000
0.7819030000 0.2490270000 0.0000000000
0.7879300000 0.2484320000 0.0000000000
0.7926600000 0.2484930000 0.0000000000
0.7968260000 0.2491040000 0.0000000000
0.7998470000 0.2505230000 0.0000000000
0.8022280000 0.2523690000 0.0000000000
0.8047610000 0.2541080000 0.0000000000
0.0042570000 0.1616540000 0.0036770000
0.0039830000 0.1659420000 0.0043950000
0.0037230000 0.1708710000 0.0038300000
0.0034490000 0.1773250000 0.0031130000
0.0031740000 0.1852140000 0.0024570000
0.0029140000 0.1935910000 0.0020290000
0.0026550000 0.2046850000 0.0017850000
0.0040590000 0.2207830000 0.0015720000
0.0637670000 0.2377050000 0.0014040000
0.1323260000 0.2523380000 0.0012210000
0.1922330000 0.2654920000 0.0010380000
0.2555580000 0.2777600000 0.0008550000
0.3181510000 0.2892960000 0.0006870000
0.3774930000 0.3003130000 0.0005040000
0.4342410000 0.3087510000 0.0003200000
0.4907910000 0.3145340000 0.0001370000
0.5480580000 0.3185170000 0.0000000000
0.5994960000 0.3210650000 0.0000000000
0.6414590000 0.3222400000 0.0000000000
0.6778060000 0.3215230000 0.0000000000
0.7100180000 0.3193870000 0.0000000000
0.7370410000 0.3168540000 0.0000000000
0.7583890000 0.3142900000 0.0000000000
0.7751430000 0.3112840000 0.0000000000
0.7886470000 0.3083390000 0.0000000000
0.7995120000 0.3061110000 0.0000000000
0.8075990000 0.3046770000 0.0000000000
0.8132300000 0.3037920000 0.0000000000
0.8176390000 0.3035020000 0.0000000000
0.8214850000 0.3039140000 0.0000000000
0.8242920000 0.3051800000 0.0000000000
0.8264740000 0.3068890000 0.0000000000
0.8288090000 0.3084760000 0.0000000000
0.0039830000 0.1858550000 0.0025790000
0.0037230000 0.1906610000 0.0025480000
0.0034490000 0.1961390000 0.0023960000
0.0031740000 0.2033570000 0.0021670000
0.0029140000 0.2126040000 0.0019530000
0.0026400000 0.2220950000 0.0017550000
0.0023650000 0.2344090000 0.0015720000
0.0021060000 0.2516980000 0.0014040000
0.0351570000 0.2722510000 0.0012210000
0.1213400000 0.2889600000 0.0010380000
0.1911040000 0.3039900000 0.0008550000
0.2599070000 0.3178000000 0.0006870000
0.3264360000 0.3312120000 0.0005040000
0.3887540000 0.3435420000 0.0003200000
0.4479290000 0.3537350000 0.0001370000
0.5066760000 0.3612730000 0.0000000000
0.5657440000 0.3666590000 0.0000000000
0.6185700000 0.3704130000 0.0000000000
0.6618300000 0.3727470000 0.0000000000
0.6991990000 0.3732200000 0.0000000000
0.7320970000 0.3722740000 0.0000000000
0.7597470000 0.3708250000 0.0000000000
0.7816130000 0.3691920000 0.0000000000
0.7991610000 0.3669790000 0.0000000000
0.8130460000 0.3646450000 0.0000000000
0.8242620000 0.3627990000 0.0000000000
0.8322120000 0.3613640000 0.0000000000
0.8374760000 0.3601890000 0.0000000000
0.8415660000 0.3596250000 0.0000000000
0.8453800000 0.3599760000 0.0000000000
0.8481270000 0.3613340000 0.0000000000
0.8502170000 0.3630430000 0.0000000000
0.8524450000 0.3645990000 0.0000000000
0.0037230000 0.2117040000 0.0023800000
0.0034490000 0.2178380000 0.0022130000
0.0031740000 0.2242310000 0.0021210000
0.0029140000 0.2323490000 0.0019380000
0.0026400000 0.2426490000 0.0017550000
0.0023650000 0.2530560000 0.0015720000
0.0021060000 0.2662390000 0.0014040000
0.0019990000 0.2844890000 0.0012210000
0.0047300000 0.3074240000 0.0010380000
0.1001300000 0.3282370000 0.0008550000
0.1857940000 0.3455860000 0.0006870000
0.2616770000 0.3609830000 0.0005040000
0.3322500000 0.3760130000 0.0003200000
0.3975590000 0.3901270000 0.0001370000
0.4591290000 0.4019680000 0.0000000000
0.5200580000 0.4110170000 0.0000000000
0.5814760000 0.4183720000 0.0000000000
0.6364840000 0.4239720000 0.0000000000
0.6810860000 0.4276800000 0.0000000000
0.7194480000 0.4292970000 0.0000000000
0.7532460000 0.4293740000 0.0000000000
0.7814910000 0.4287940000 0.0000000000
0.8040440000 0.4278480000 0.0000000000
0.8218660000 0.4261390000 0.0000000000
0.8361030000 0.4241090000 0.0000000000
0.8474560000 0.4223390000 0.0000000000
0.8555580000 0.4208590000 0.0000000000
0.8607310000 0.4195770000 0.0000000000
0.8647130000 0.4189060000 0.0000000000
0.8684820000 0.4192420000 0.0000000000
0.8712900000 0.4206300000 0.0000000000
0.8735180000 0.4225220000 0.0000000000
0.8758680000 0.4243080000 0.0000000000
0.0034490000 0.2384370000 0.0022130000
0.0031740000 0.2458840000 0.0020290000
0.0029140000 0.2534370000 0.0019380000
0.0026400000 0.2625920000 0.0017550000
0.0023650000 0.2738540000 0.0015720000
0.0021060000 0.2850690000 0.0014040000
0.0018310000 0.2990620000 0.0012210000
0.0015560000 0.3182420000 0.0010380000
0.0015110000 0.3429160000 0.0008550000
0.0402530000 0.3690700000 0.0006870000
0.1783630000 0.3883570000 0.0005040000
0.2614180000 0.4058750000 0.0003200000
0.3362330000 0.4225680000 0.0001370000
0.4044560000 0.4383460000 0.0000000000
0.4685440000 0.4518650000 0.0000000000
0.5322960000 0.4627600000 0.0000000000
0.5965360000 0.4717780000 0.0000000000
0.6538190000 0.4789500000 0.0000000000
0.7001600000 0.4841840000 0.0000000000
0.7397270000 0.4869310000 0.0000000000
0.7743500000 0.4879070000 0.0000000000
0.8033420000 0.4880140000 0.0000000000
0.8262910000 0.4875560000 0.0000000000
0.8442820000 0.4861220000 0.0000000000
0.8587010000 0.4841840000 0.0000000000
0.8701000000 0.4825360000 0.0000000000
0.8783400000 0.4810410000 0.0000000000
0.8837110000 0.4796220000 0.0000000000
0.8878310000 0.4788130000 0.0000000000
0.8916910000 0.4791790000 0.0000000000
0.8946060000 0.4807050000 0.0000000000
0.8969710000 0.4827650000 0.0000000000
0.8994580000 0.4846880000 0.0000000000
0.0031740000 0.2629740000 0.0020290000
0.0029140000 0.2713820000 0.0018620000
0.0026400000 0.2802620000 0.0017550000
0.0023650000 0.2902420000 0.0015720000
0.0021060000 0.3025860000 0.0014040000
0.0018310000 0.3145040000 0.0012210000
0.0015560000 0.3292900000 0.0010380000
0.0012970000 0.3495840000 0.0008550000
0.0011600000 0.3757380000 0.0006870000
0.0040280000 0.4048680000 0.0005040000
0.1668730000 0.4278020000 0.0003200000
0.2599220000 0.4468150000 0.0001370000
0.3387960000 0.4650950000 0.0000000000
0.4096280000 0.4824600000 0.0000000000
0.4763100000 0.4974440000 0.0000000000
0.5428090000 0.5098800000 0.0000000000
0.6098120000 0.5205770000 0.0000000000
0.6693220000 0.5293200000 0.0000000000
0.7172050000 0.5356220000 0.0000000000
0.7579000000 0.5393760000 0.0000000000
0.7934840000 0.5412070000 0.0000000000
0.8231630000 0.5420160000 0.0000000000
0.8465550000 0.5420770000 0.0000000000
0.8649730000 0.5409630000 0.0000000000
0.8794380000 0.5393000000 0.0000000000
0.8911270000 0.5378500000 0.0000000000
0.8994740000 0.5364460000 0.0000000000
0.9049360000 0.5350120000 0.0000000000
0.9092240000 0.5341880000 0.0000000000
0.9133140000 0.5345540000 0.0000000000
0.9164570000 0.5360800000 0.0000000000
0.9189750000 0.5381400000 0.0000000000
0.9215840000 0.5400780000 0.0000000000
0.0029140000 0.2838330000 0.0018620000
0.0026400000 0.2927750000 0.0016940000
0.0023650000 0.3024950000 0.0015720000
0.0021060000 0.3134360000 0.0014040000
0.0018310000 0.3265130000 0.0012210000
0.0015560000 0.3395900000 0.0010380000
0.0012970000 0.3551380000 0.0008550000
0.0010220000 0.3766540000 0.0006870000
0.0007480000 0.4039980000 0.0005040000
0.0020450000 0.4343480000 0.0003200000
0.1511560000 0.4607610000 0.0001370000
0.2575110000 0.4808880000 0.0000000000
0.3403830000 0.5006790000 0.0000000000
0.4140080000 0.5192650000 0.0000000000
0.4830400000 0.5357600000 0.0000000000
0.5516590000 0.5493550000 0.0000000000
0.6204470000 0.5615170000 0.0000000000
0.6816510000 0.5714810000 0.0000000000
0.7306940000 0.5789880000 0.0000000000
0.7725800000 0.5838860000 0.0000000000
